icons/round/action/ic_flip_to_front_24px.svg

<svg xmlns="http://www.w3.org/2000/svg" height="24" viewBox="0 0 24 24" width="24"><path d="M0 0h24v24H0V0z" fill="none"/><path d="M3 13h2v-2H3v2zm0 4h2v-2H3v2zm2 4v-2H3c0 1.1.89 2 2 2zM3 9h2V7H3v2zm12 12h2v-2h-2v2zm4-18H9c-1.11 0-2 .9-2 2v10c0 1.1.89 2 2 2h10c1.1 0 2-.9 2-2V5c0-1.1-.9-2-2-2zm-1 12h-8c-.55 0-1-.45-1-1V6c0-.55.45-1 1-1h8c.55 0 1 .45 1 1v8c0 .55-.45 1-1 1zm-7 6h2v-2h-2v2zm-4 0h2v-2H7v2z"/></svg>

<svg xmlns="http://www.w3.org/2000/svg" enable-background="new 0 0 24 24" height="24" viewBox="0 0 24 24" width="24"><g><path d="M0,0h24v24H0V0z" fill="none"/></g><g><path d="M3,13h2v-2H3V13z M3,17h2v-2H3V17z M5,21v-2H3C3,20.1,3.89,21,5,21z M3,9h2V7H3V9z M15,21h2v-2h-2V21z M19,3H9 C7.89,3,7,3.9,7,5v10c0,1.1,0.89,2,2,2h10c1.1,0,2-0.9,2-2V5C21,3.9,20.1,3,19,3z M19,15H9V5h10V15z M11,21h2v-2h-2V21z M7,21h2v-2 H7V21z"/></g></svg>
